X: 626
P: Longways for as many as will
M: 6/4
L: 1/4
K: Dm
e |\
f>gf e>d^c | d2A D2a | g>af f>ed | d3 zz :|\
f |\
e/f/ge c2f | f/g/af d2f | g>ab a>gf | f2c F2e |
f>gf e>d^c | d2A D2a | g>af f>ed | d3 zzA |\

